icon-themes/breeze_svg/cmd/lc_adddirect.svg

<svg viewBox="0 0 24 24" xmlns="http://www.w3.org/2000/svg"><path d="m5 4v16 .001953h1 12 1v-10.5937499-1.40625-.0097656l-3.992188-3.9921875-.007812.0097656v-.0097656h-1-8zm1 1h8v3 1h4v10h-12z" fill="#4d4d4d"/></svg>

<svg xmlns="http://www.w3.org/2000/svg" viewBox="0 0 24 24">
 <path 
     style="fill:#4d4d4d" 
     d="M 5 4 L 5 20 L 5 20.001953 L 6 20.001953 L 18 20.001953 L 19 20.001953 L 19 9.4082031 L 19 8.0019531 L 19 7.9921875 L 15.007812 4 L 15 4.0097656 L 15 4 L 14 4 L 6 4 L 5 4 z M 6 5 L 14 5 L 14 8 L 14 9 L 18 9 L 18 19 L 6 19 L 6 5 z "
     />
 </svg>
